X: 3106
T: Beardless Boy, The
R: jig
M: 6/8
K: Eminor
GAB BAB|G3 E3|GAB dB/A/G|A3 A3|
ee/e/e dd/d/d|cc/c/c BAG|BAB GED|E3 G3|
GAB BAB|G3 E3|GAB dB/A/G|A3 A3|
ee/e/e dd/d/d|cc/c/c BAG|BAB GED|E3 G3|
DD/D/D DD/D/D|G3 G3|DD/D/D DD/D/D|A3 A3|
ee/e/e dd/d/d|cc/c/c BAG|BAB GED|E3 G3|
DD/D/D DD/D/D|G3 G3|DD/D/D DD/D/D|A3 A3|
ee/e/e dd/d/d|cc/c/c BAG|BAB GED|E3 G3|

